X: 1
T: Galope de la Malbaie
C:
R: reel
Z: 2015 John Chambers <jc:trillian.mit.edu>
S: printed copy of unknown origin, from Paul Lizotte
M: C|
L: 1/8
K: D
|:\
"D"DFAd "B7/d#"fz ff | "Em"egec "A7"dBA2 | "D/f#"FAFA "G"GBGB | "D/f#"FAFA "Em"EAEA |
"D"DFAd ffdf | "A7"egec "Bm"dBAF | "D/f#"DAFA "G"GBGB | "A7"Acec "D"d2z2 :|
|:\
"A7"Adef gfge | "D"defg "B7"a2AA | "Em"Adef "A"gfgb | "D"afge fdfd |
"Em"Acef "A7"gfge | "D"defg afge | "Em"fdec "A7"dBAG | FABc "D"d2z2 |]
